X: 1
T: Carillions, The
M: 6/8
L: 1/8
R: jig
K: Amaj
E|:FAB c2 f|fec efe|cdc ~B3|AGA BGE|
FAB c2 f|fec efe|cdc ~B3|1AGE F2 E:|2AGE F2 g||
agf fec|Bce c2 B|BAG EFG|ABc efg|
agf fec|Bce c2 B|BAG EFG|ABc f2 g|
agf fec|Bce c2 B|BAG EFG|ABc efg|
agf g3|fec Bec|BAG FEC|B,CE F2||
